X:15502
%10780
T:Milford Pavillion
% Nottingham Music Database
S:Derek Pearce, via Phil Rowe
M:6/8
K:Cmaj
"G7"G3 |"C"e2e cBA|GAG E3|"C""e"GAG "C/gim""eb"^FGF|"Dm"F3 -F2c|"G7"d2c Bcd|
"C"cdc G2c|"G7"Bcd Bcd|B3 G3|"C"e3 cBA|GAG E3|"C""e"GAG "C/gim""eb"^FGF|
"Dm"F3 -F2c|"G7"d2c Bcd|"C"cdc G2G|"Dm"A2A "G7"BAB|"C"c3 -c2B||
"Dm"A2B "G7"A2B|"C"GAc edc|"Dm"A2B "G7"d2B|"C"G3 c2B|"Dm"A2B "G7"A2B|
"C"GAc edc|"Dm"A2A "G7"G2F|"C"E3 -E2B|"Dm"A2B "G7"A2B|"C"
